public/svgs/solid/trash-can-list.svg

<svg xmlns="http://www.w3.org/2000/svg" viewBox="0 0 640 512"><!-- Font Awesome Pro 6.0.0-alpha2 by @fontawesome - https://fontawesome.com License - https://fontawesome.com/license (Commercial License) --><path d="M32 464C32 490.5 53.5 512 80 512H336C362.5 512 384 490.5 384 464V128H32V464ZM256 208C256 199.125 263.125 192 272 192S288 199.125 288 208V432C288 440.875 280.875 448 272 448S256 440.875 256 432V208ZM128 208C128 199.125 135.125 192 144 192S160 199.125 160 208V432C160 440.875 152.875 448 144 448S128 440.875 128 432V208ZM400 32H320L308.422 8.844C305.713 3.424 300.172 0 294.111 0H121.889C115.828 0 110.289 3.424 107.578 8.844L96 32H16C7.164 32 0 39.162 0 48V80C0 88.836 7.164 96 16 96H400C408.838 96 416 88.836 416 80V48C416 39.162 408.838 32 400 32ZM512 384H480C462.327 384 448 398.327 448 416V416C448 433.673 462.327 448 480 448H512C529.673 448 544 433.673 544 416V416C544 398.327 529.673 384 512 384ZM608 128H480C462.327 128 448 142.327 448 160V160C448 177.673 462.327 192 480 192H608C625.673 192 640 177.673 640 160V160C640 142.327 625.673 128 608 128ZM576 256H480C462.327 256 448 270.327 448 288V288C448 305.673 462.327 320 480 320H576C593.673 320 608 305.673 608 288V288C608 270.327 593.673 256 576 256Z"/></svg>

<svg xmlns="http://www.w3.org/2000/svg" viewBox="0 0 640 512"><!--! Font Awesome Pro 6.5.1 by @fontawesome - https://fontawesome.com License - https://fontawesome.com/license (Commercial License) Copyright 2023 Fonticons, Inc. --><path d="M147.8 0c-12.1 0-23.2 6.8-28.6 17.7L112 32H32C14.3 32 0 46.3 0 64S14.3 96 32 96H384c17.7 0 32-14.3 32-32s-14.3-32-32-32H304l-7.2-14.3C291.4 6.8 280.3 0 268.2 0H147.8zM384 128H32V464c0 26.5 21.5 48 48 48H336c26.5 0 48-21.5 48-48V128zM160 208V432c0 8.8-7.2 16-16 16s-16-7.2-16-16V208c0-8.8 7.2-16 16-16s16 7.2 16 16zm128 0V432c0 8.8-7.2 16-16 16s-16-7.2-16-16V208c0-8.8 7.2-16 16-16s16 7.2 16 16zm192-80c-17.7 0-32 14.3-32 32s14.3 32 32 32H608c17.7 0 32-14.3 32-32s-14.3-32-32-32H480zm0 128c-17.7 0-32 14.3-32 32s14.3 32 32 32h96c17.7 0 32-14.3 32-32s-14.3-32-32-32H480zM448 416c0 17.7 14.3 32 32 32h32c17.7 0 32-14.3 32-32s-14.3-32-32-32H480c-17.7 0-32 14.3-32 32z"/></svg>
